icons/solid/trash.svg

<svg width="24" height="24" viewBox="0 0 24 24" fill="none" xmlns="http://www.w3.org/2000/svg">
<path fill-rule="evenodd" clip-rule="evenodd" d="M11 5C10.4477 5 10 5.44772 10 6H14C14 5.44772 13.5523 5 13 5H11ZM11 3C9.34315 3 8 4.34315 8 6H4C3.44772 6 3 6.44772 3 7C3 7.55228 3.44772 8 4 8H5V18C5 19.6569 6.34315 21 8 21H16C17.6569 21 19 19.6569 19 18V8H20C20.5523 8 21 7.55228 21 7C21 6.44772 20.5523 6 20 6H16C16 4.34315 14.6569 3 13 3H11ZM11 11C11 10.4477 10.5523 10 10 10C9.44772 10 9 10.4477 9 11V16C9 16.5523 9.44772 17 10 17C10.5523 17 11 16.5523 11 16V11ZM15 11C15 10.4477 14.5523 10 14 10C13.4477 10 13 10.4477 13 11V16C13 16.5523 13.4477 17 14 17C14.5523 17 15 16.5523 15 16V11Z" fill="currentColor"/>
</svg>

<svg width="24" height="24" fill="none" xmlns="http://www.w3.org/2000/svg"><path fill-rule="evenodd" clip-rule="evenodd" d="M11 5a1 1 0 00-1 1h4a1 1 0 00-1-1h-2zm0-2a3 3 0 00-3 3H4a1 1 0 000 2h1v10a3 3 0 003 3h8a3 3 0 003-3V8h1a1 1 0 100-2h-4a3 3 0 00-3-3h-2zm0 8a1 1 0 10-2 0v5a1 1 0 102 0v-5zm4 0a1 1 0 10-2 0v5a1 1 0 102 0v-5z" fill="currentColor"/></svg>
